.local/share/icons/Gruvbox-Plus-Dark/panel/22/pcloud-warning.svg

<svg width="22" height="22" version="1.1" xmlns="http://www.w3.org/2000/svg">
  <defs>
    <style id="current-color-scheme" type="text/css">.ColorScheme-Text { color:#ebdbb2; } .ColorScheme-Highlight { color:#458588; } .ColorScheme-NeutralText { color:#fe8019; } .ColorScheme-PositiveText { color:#689d6a; } .ColorScheme-NegativeText { color:#fb4934; }</style>
  </defs>
  <path class="ColorScheme-NeutralText" d="m11.5 4a6.5 6.5 0 0 0-6.01 4.031 5 5 0 0 0-4.49 4.969 5 5 0 0 0 5 5h11.75c1.795 0 3.25-1.455 3.25-3.25 0-1.227-0.6878-2.283-1.691-2.836a3 3 0 0 0 0.6914-1.914 3 3 0 0 0-3-3 3 3 0 0 0-0.02344 0 6.5 6.5 0 0 0-5.477-3zm0 2a4.5 4.5 0 0 1 4.5 4.5 4.5 4.5 0 0 1-4.5 4.5 4.5 4.5 0 0 1-4.5-4.5 4.5 4.5 0 0 1 4.5-4.5zm0 1a3.5 3.5 0 0 0-3.5 3.5 3.5 3.5 0 0 0 3.5 3.5 3.5 3.5 0 0 0 3.5-3.5 3.5 3.5 0 0 0-3.5-3.5zm-1.5 1h2.5a1.5 1.5 0 0 1 1.5 1.5 1.5 1.5 0 0 1-1.5 1.5h-1.5v2h-1v-2zm1 1v1h1.5a0.5 0.5 0 0 0 0.5-0.5 0.5 0.5 0 0 0-0.5-0.5z" fill="currentColor"/>
</svg>

<svg xmlns="http://www.w3.org/2000/svg" width="22" height="22" version="1.1">
 <defs>
  <style id="current-color-scheme" type="text/css">
   .ColorScheme-Text { color:#ebdbb2; } .ColorScheme-Highlight { color:#458588; }
  </style>
 </defs>
 <path style="fill:currentColor" class="ColorScheme-Highlight" d="M 11.5,3.9999999 A 6.5,6.5 0 0 0 5.490234,8.0312499 5,5 0 0 0 1,13 5,5 0 0 0 6,18 H 17.75 C 19.544925,18 21,16.544925 21,14.75 21,13.523022 20.312228,12.467196 19.308594,11.914062 A 3,3 0 0 0 20,9.9999999 a 3,3 0 0 0 -3,-3 3,3 0 0 0 -0.02344,0 6.5,6.5 0 0 0 -5.476562,-3 z m 0,2 A 4.5,4.5 0 0 1 16,10.5 4.5,4.5 0 0 1 11.5,15 4.5,4.5 0 0 1 7,10.5 4.5,4.5 0 0 1 11.5,5.9999999 Z m 0,1 A 3.5,3.5 0 0 0 8,10.5 3.5,3.5 0 0 0 11.5,14 3.5,3.5 0 0 0 15,10.5 3.5,3.5 0 0 0 11.5,6.9999999 Z m -1.5,1 h 1 1.5 a 1.5,1.5 0 0 1 1.5,1.5 A 1.5,1.5 0 0 1 12.5,11 H 11 v 2 h -1 v -2 z m 1,1 v 1 h 1.5 a 0.5,0.5 0 0 0 0.5,-0.5 0.5,0.5 0 0 0 -0.5,-0.5 z"/>
</svg>
